X:861
T:Clock Tower, The
C:Nigel Gatherer
Z:Nigel Gatherer
L:1/4
M:4/4
K:D
D E F G | F E E2  | D E F G | F E D2 :|
D E F F | E F G G | D E F F | F E D2 :|
<end>
<start>
